X:446
T:Johnny McIljohn's No.1
S:Sessions, records
Z:Nigel Gatherer
M:4/4
L:1/8
K:D
FA A2 BAFA | BAFA Bd d2 | FA A2 BAFA | BdAF E2 D2 :|
f3 e  d3 A | BAFA BAFA  | f3 e  d3 A | BdAF E2 D2 :|
<end>
<start>
